app/assets/v2/images/top-bar/codefund-logo.svg

<?xml version="1.0" encoding="UTF-8"?>
<svg width="102px" height="17px" viewBox="0 0 102 17" version="1.1" xmlns="http://www.w3.org/2000/svg" xmlns:xlink="http://www.w3.org/1999/xlink">
    <!-- Generator: Sketch 51.2 (57519) - http://www.bohemiancoding.com/sketch -->
    <title>codefund-logo</title>
    <desc>Created with Sketch.</desc>
    <defs>
        <polygon id="path-1" points="3.4024195e-05 0.108913333 17.3852635 0.108913333 17.3852635 16.9999887 3.4024195e-05 16.9999887"></polygon>
    </defs>
    <g id="Page-1" stroke="none" stroke-width="1" fill="none" fill-rule="evenodd">
        <g id="Group-6-Copy" transform="translate(0.000000, -6.000000)">
            <g id="codefund-logo" transform="translate(0.000000, 6.000000)">
                <path d="M29.3424658,4.94945087 L29.3424658,6.65791349 C28.5699359,5.96053712 27.7708149,5.61179131 26.9448893,5.61179131 C26.0345984,5.61179131 25.267942,5.96468611 24.6447067,6.67036047 C24.0175201,7.37200108 23.7039802,8.23026614 23.7039802,9.24538614 C23.7039802,10.2482897 24.0175201,11.094223 24.6447067,11.7834166 C25.2718933,12.4726103 26.0404719,12.8172071 26.9505492,12.8172071 C27.4208591,12.8172071 27.820473,12.7346882 28.1493909,12.5695353 C28.3329655,12.4870165 28.5231612,12.3756852 28.7200848,12.235311 C28.9170083,12.095052 29.1245043,11.9257501 29.3424658,11.7276357 L29.3424658,13.4671005 C28.5776249,13.9335164 27.7745526,14.1666667 26.9333558,14.1666667 C25.6675559,14.1666667 24.5873597,13.6899936 23.6925535,12.7366475 C22.801485,11.7752339 22.3561644,10.6155907 22.3561644,9.25783311 C22.3561644,8.04044976 22.7288668,6.95502741 23.474592,6.00179654 C24.3922515,4.8339706 25.5797733,4.25 27.0366232,4.25 C27.8318997,4.25 28.6005851,4.48315029 29.3424658,4.94945087" id="Fill-1" fill="#FFFFFF"></path>
                <path d="M33.561196,9.18665302 C33.561196,10.2437988 33.9084762,11.1129717 34.6034878,11.7942871 C35.2943248,12.4757177 36.0921215,12.8163754 36.9971033,12.8163754 C37.9788073,12.8163754 38.8069542,12.4694904 39.4817699,11.7757204 C40.1564727,11.0737627 40.4938242,10.2190049 40.4938242,9.211447 C40.4938242,8.1915498 40.1604217,7.33679199 39.4938423,6.64717357 C38.8312119,5.95340361 38.0111885,5.60651863 37.0334335,5.60651863 C36.0598531,5.60651863 35.2376859,5.95340361 34.5671576,6.64717357 C33.8964037,7.33264044 33.561196,8.17921047 33.561196,9.18665302 M32.1369863,9.16808637 C32.1369863,7.82194662 32.6197712,6.66574022 33.5854537,5.6994672 C34.5468489,4.73319417 35.7023057,4.25 37.0517114,4.25 C38.3849829,4.25 39.5282544,4.73734572 40.4817517,5.71180652 C41.4391979,6.68638265 41.9178082,7.85711946 41.9178082,9.22378632 C41.9178082,10.5988716 41.4370542,11.7654569 40.4755463,12.7234268 C39.5099765,13.6856636 38.3444781,14.1666667 36.9790511,14.1666667 C35.7710171,14.1666667 34.6861897,13.7392878 33.7246817,12.8844146 C32.6662557,11.9388994 32.1369863,10.7001233 32.1369863,9.16808637" id="Fill-3" fill="#FFFFFF"></path>
                <path d="M46.0755786,12.1522001 L46.6900977,12.1522001 C47.3024381,12.1522001 47.8113963,12.086577 48.2170813,11.9554418 C48.6228753,11.8163119 48.9894516,11.5955696 49.317137,11.2934367 C49.9879771,10.6692954 50.3235061,9.85605732 50.3235061,8.85416667 C50.3235061,7.84428132 49.9920078,7.0252693 49.3287934,6.39701957 C48.7320312,5.83639164 47.8524659,5.55613318 46.6900977,5.55613318 L46.0755786,5.55613318 L46.0755786,12.1522001 Z M44.7123288,13.4583333 L44.7123288,4.25 L46.6081764,4.25 C47.516828,4.25 48.2347293,4.34149484 48.7613355,4.52437347 C49.3269415,4.70325475 49.8399304,5.00738625 50.3000844,5.43676796 C51.2324845,6.3036371 51.6986301,7.44277001 51.6986301,8.85416667 C51.6986301,10.2696717 51.2128757,11.4146896 50.2415847,12.2893314 C49.7539783,12.7268188 49.2430592,13.0309503 48.7086095,13.2018369 C48.2092378,13.3728345 47.5013588,13.4583333 46.5847547,13.4583333 L44.7123288,13.4583333 Z" id="Fill-5" fill="#FFFFFF"></path>
                <polygon id="Fill-7" fill="#FFFFFF" points="60.0821918 5.55613318 56.5293182 5.55613318 56.5293182 7.76877588 59.9788522 7.76877588 59.9788522 9.07479802 56.5293182 9.07479802 56.5293182 12.1522001 60.0821918 12.1522001 60.0821918 13.4583333 55.1917808 13.4583333 55.1917808 4.25 60.0821918 4.25"></polygon>
                <polygon id="Fill-9" fill="#0FCE7C" points="63.5753425 14.1666667 65.3539478 14.1666667 65.3539478 9.66315618 68.3558021 9.66315618 68.3558021 7.86508302 65.3539478 7.86508302 65.3539478 6.04818724 68.4657534 6.04818724 68.4657534 4.25 63.5753425 4.25"></polygon>
                <path d="M77.1808682,10.0756618 C77.1808682,10.8344971 77.0692215,11.3795981 76.8488129,11.6961626 C76.5173987,12.1731961 76.0595941,12.4050967 75.4491167,12.4050967 C74.8425924,12.4050967 74.3867109,12.1731961 74.0571129,11.6989661 C73.8355291,11.3698421 73.7232414,10.8237319 73.7232414,10.0756618 L73.7232414,4.25 L71.9589041,4.25 L71.9589041,10.461191 C71.9589041,11.4964455 72.2724762,12.3632694 72.8911802,13.0382257 C73.5800773,13.7870808 74.4406645,14.1666667 75.4491167,14.1666667 C76.4572484,14.1666667 77.3197587,13.7871929 78.0132499,13.0378893 C78.6316334,12.3632694 78.9452055,11.4964455 78.9452055,10.461191 L78.9452055,4.25 L77.1808682,4.25 L77.1808682,10.0756618 Z" id="Fill-11" fill="#0FCE7C"></path>
                <polygon id="Fill-13" fill="#0FCE7C" points="89.0235815 10.1886744 82.4383562 2.83333333 82.4383562 13.9418502 84.2366925 13.9418502 84.2366925 7.53825917 90.8219178 14.875 90.8219178 3.83611773 89.0235815 3.83611773"></polygon>
                <path d="M100.124985,9.20833333 C100.124985,10.1794662 99.8082532,10.9438926 99.1568539,11.5454178 C98.8422648,11.8332327 98.485941,12.0460994 98.101418,12.1769451 C97.7052771,12.3041403 97.1962269,12.3684794 96.5883671,12.3684794 L96.1777882,12.3684794 L96.1777882,6.04818724 L96.5883671,6.04818724 C97.7278364,6.04818724 98.5956919,6.31854845 99.1671184,6.85105736 C99.811637,7.45691744 100.124985,8.22796024 100.124985,9.20833333 M100.478715,5.52925342 C99.9797037,5.06724376 99.4149321,4.73516718 98.8058316,4.54397504 C98.239368,4.34890429 97.464908,4.25 96.503657,4.25 L94.3150685,4.25 L94.3150685,14.1666667 L96.4794058,14.1666667 C97.4484397,14.1666667 98.2126353,14.0739225 98.7459367,13.892655 C99.3268381,13.7084215 99.8882258,13.3774857 100.415098,12.9086315 C101.466811,11.9688696 102,10.7239532 102,9.20833333 C102,7.69853139 101.48813,6.46057364 100.478715,5.52925342" id="Fill-15" fill="#0FCE7C"></path>
                <path d="M15.369863,8.1317822 C14.9167063,7.86824041 14.5953946,7.532894 14.4055668,7.12574296 C14.2156187,6.7188132 14.1209454,6.17115079 14.1209454,5.48330894 L14.1209454,5.20505219 L14.1209454,3.02391752 C14.1209454,2.71423933 14.0870218,2.45921673 14.0198964,2.25851782 C13.9524101,2.05804019 13.8453463,1.89728191 13.6984644,1.77690682 C13.5514621,1.65664237 13.3545368,1.57797814 13.110696,1.52763745 C13.0655848,1.51834379 13.0177068,1.50938204 12.9686259,1.50086285 C12.6305929,1.44277744 12.2871466,1.41666667 11.9434597,1.41666667 L11.4747848,1.41666667 L10.948127,1.41666667 L10.4794521,1.41666667 C10.823139,1.41666667 11.1665853,1.44277744 11.504498,1.50086285 C11.5535789,1.50938204 11.6014569,1.51834379 11.6465681,1.52763745 C11.8904089,1.57797814 12.0874545,1.65664237 12.2344567,1.77690682 C12.3813387,1.89728191 12.4884025,2.05804019 12.5557685,2.25851782 C12.6230142,2.45921673 12.6568175,2.71423933 12.6568175,3.02391752 L12.6568175,5.20505219 L12.6568175,5.48330894 L12.6568175,5.5110793 C12.6568175,6.18763599 12.6706516,6.79238805 12.8604794,7.20507103 C13.0469389,7.61078376 13.3253048,7.88395113 13.7663115,8.14583333 C13.3253048,8.40771554 13.0469389,8.69438085 12.8604794,9.10009358 C12.6706516,9.51277656 12.6568175,10.1040307 12.6568175,10.7803661 L12.6568175,10.8083577 L12.6568175,11.0866145 L12.6568175,13.2677491 C12.6568175,13.5774273 12.6230142,13.8323393 12.5557685,14.0330382 C12.4884025,14.2335158 12.3813387,14.3942741 12.2344567,14.5146492 C12.0874545,14.6350243 11.8904089,14.7136885 11.6465681,14.7640292 C11.6014569,14.7733229 11.5535789,14.7822846 11.504498,14.7908038 C11.1665853,14.8488892 10.823139,14.875 10.4794521,14.875 L10.948127,14.875 L11.4747848,14.875 L11.9434597,14.875 C12.2871466,14.875 12.6305929,14.8488892 12.9686259,14.7908038 C13.0177068,14.7822846 13.0655848,14.7733229 13.110696,14.7640292 C13.3545368,14.7136885 13.5514621,14.6350243 13.6984644,14.5146492 C13.8453463,14.3942741 13.9524101,14.2335158 14.0198964,14.0330382 C14.0870218,13.8323393 14.1209454,13.5774273 14.1209454,13.2677491 L14.1209454,11.0866145 L14.1209454,10.8083577 C14.1209454,10.1205159 14.2156187,9.57263219 14.4055668,9.16592371 C14.5953946,8.75877267 14.9167063,8.42342626 15.369863,8.15977383 C15.362164,8.15534828 15.3551868,8.15036953 15.3476082,8.14583333 C15.3551868,8.14129714 15.362164,8.13631839 15.369863,8.1317822" id="Fill-17" fill="#0FCE7C"></path>
                <g id="Group-21">
                    <mask id="mask-2" fill="white">
                        <use xlink:href="#path-1"></use>
                    </mask>
                    <g id="Clip-20"></g>
                    <path d="M14.1208688,9.60657533 C13.9398601,10.0262487 13.8495826,10.5803353 13.8495826,11.2681553 L13.8495826,13.7868753 C13.8495826,14.4047687 13.7153004,14.8216087 13.4470764,15.0375087 C13.3605415,15.1068687 13.2513238,15.1643287 13.1224855,15.211362 C12.9400024,15.2781153 12.7155562,15.322882 12.4485797,15.3448687 C12.222659,15.3469087 10.1442343,15.613242 9.80467288,13.2164687 L10.530409,13.2164687 L10.7114177,13.2164687 L11.7319167,13.2164687 C11.6543415,11.6752487 10.4262949,11.5857153 10.2696702,11.580502 L9.56185354,11.580162 L9.56208037,11.579482 C8.02600138,11.579482 7.33576388,10.4303953 7.02546322,9.391922 L11.5993357,9.391922 C11.5993357,8.48831533 10.8757545,7.716402 10.1827951,7.75572867 L7.18288183,7.75572867 C5.6700527,7.73929533 4.9870737,6.599842 4.67915473,5.568962 L11.3824882,5.568962 C11.3824882,4.665242 10.7598454,3.93276867 9.85548234,3.93276867 L4.75877135,3.93276867 C3.22280577,3.93276867 2.75349871,2.78356867 2.44319805,1.74520867 L11.7745604,1.74520867 C12.1020999,1.74520867 12.4292993,1.77172867 12.7515084,1.83088867 C12.798235,1.839502 12.8439408,1.84856867 12.8869247,1.85797533 C12.972212,1.87678867 13.0494469,1.901042 13.1224855,1.92835533 C13.2486019,1.97527533 13.3583866,2.03420867 13.4470764,2.11161533 C13.5870292,2.23401533 13.6889884,2.39755533 13.7532941,2.60132867 C13.8172596,2.805442 13.8495826,3.064862 13.8495826,3.37981533 L13.8495826,5.88096867 C13.8495826,6.58057533 13.9398601,7.13760867 14.1208688,7.55138867 C14.3017641,7.96550867 14.6079819,8.30641533 15.0397489,8.574562 C14.6079819,8.84293533 14.3017641,9.18667533 14.1208688,9.60657533 M16.2037166,7.25388867 C15.9527315,6.92170867 15.827409,6.528102 15.827409,6.07329533 L15.827409,3.50221533 C15.827409,2.95424867 15.7748984,2.467482 15.669877,2.04168867 C15.5648557,1.616122 15.3780628,1.260482 15.1098388,0.974655333 C14.8412745,0.689055333 14.4679156,0.473495333 13.9895354,0.327522 C13.7379832,0.251022 13.4482105,0.195035333 13.1224855,0.158655333 C12.8287433,0.125902 12.5058537,0.108902 12.1516618,0.108902 L3.4024195e-05,0.108902 C3.4024195e-05,0.108902 0.429986435,4.403782 2.91534046,5.56816867 C3.12991972,6.836482 3.70776397,8.663982 5.26187578,9.391922 C5.4940342,10.7633687 6.15206213,12.5531287 8.00876245,13.069022 C8.00558686,13.090102 8.00377224,13.1124287 8.00377224,13.1361153 C8.00377224,13.1361153 8.22470268,16.9999887 12.2019042,16.9999887 C12.5460023,16.9965887 12.8487042,16.9876353 13.1224855,16.965422 C13.425868,16.9408287 13.6932981,16.8999153 13.9370248,16.8303287 C14.4272,16.690362 14.8122405,16.477522 15.092373,16.1918087 C15.3723921,15.9060953 15.5648557,15.5535153 15.669877,15.1336153 C15.7748984,14.7138287 15.827409,14.2241153 15.827409,13.6644753 L15.827409,11.0757153 C15.827409,10.6328087 15.9527315,10.2448687 16.2037166,9.91268867 C16.4545884,9.580282 16.8483617,9.41413533 17.3852635,9.41413533 L17.3852635,7.75255533 C16.8483617,7.75255533 16.4545884,7.58629533 16.2037166,7.25388867" id="Fill-19" fill="#FFFFFF" mask="url(#mask-2)"></path>
                </g>
            </g>
        </g>
    </g>
</svg>

<svg width="102" height="17" xmlns="http://www.w3.org/2000/svg" xmlns:xlink="http://www.w3.org/1999/xlink"><defs><path id="a" d="M0 .109h17.385V17H0z"/></defs><g fill="none" fill-rule="evenodd"><path d="M29.342 4.95v1.708c-.772-.697-1.571-1.046-2.397-1.046-.91 0-1.677.353-2.3 1.058-.627.702-.941 1.56-.941 2.575 0 1.003.314 1.85.94 2.538.628.69 1.396 1.034 2.307 1.034.47 0 .87-.082 1.198-.247.184-.083.374-.194.571-.335.197-.14.405-.31.622-.507v1.74c-.764.466-1.567.699-2.409.699-1.265 0-2.346-.477-3.24-1.43-.892-.962-1.337-2.121-1.337-3.48 0-1.217.373-2.302 1.119-3.255.917-1.168 2.105-1.752 3.562-1.752.795 0 1.564.233 2.305.7M33.561 9.187c0 1.057.347 1.926 1.042 2.607.691.682 1.49 1.022 2.394 1.022.982 0 1.81-.347 2.485-1.04.674-.702 1.012-1.557 1.012-2.565 0-1.02-.334-1.874-1-2.564-.663-.694-1.483-1.04-2.46-1.04-.974 0-1.796.346-2.467 1.04-.67.686-1.006 1.532-1.006 2.54m-1.424-.019c0-1.346.483-2.502 1.448-3.469.962-.966 2.117-1.449 3.467-1.449 1.333 0 2.476.487 3.43 1.462.957.974 1.436 2.145 1.436 3.512 0 1.375-.48 2.541-1.442 3.5-.966.962-2.132 1.443-3.497 1.443-1.208 0-2.293-.428-3.254-1.283-1.059-.945-1.588-2.184-1.588-3.716M46.076 12.152h.614c.612 0 1.121-.065 1.527-.197.406-.139.772-.36 1.1-.662.671-.624 1.007-1.437 1.007-2.439 0-1.01-.332-1.829-.995-2.457-.597-.56-1.477-.84-2.639-.84h-.614v6.595zm-1.364 1.306V4.25h1.896c.909 0 1.627.091 2.153.274a4.011 4.011 0 0 1 1.54.913c.931.867 1.398 2.006 1.398 3.417 0 1.416-.486 2.56-1.457 3.435-.488.438-.999.742-1.533.913-.5.17-1.208.256-2.124.256h-1.873zM60.082 5.556H56.53V7.77h3.45v1.306h-3.45v3.077h3.553v1.306h-4.89V4.25h4.89z" fill="#FFF"/><path fill="#0FCE7C" d="M63.575 14.167h1.779V9.663h3.002V7.865h-3.002V6.048h3.112V4.25h-4.89zM77.18 10.076c0 .758-.11 1.304-.331 1.62-.332.477-.79.71-1.4.71-.606 0-1.062-.233-1.392-.707-.221-.33-.334-.875-.334-1.623V4.25H71.96v6.211c0 1.035.313 1.902.932 2.577.69.75 1.55 1.129 2.558 1.129 1.008 0 1.87-.38 2.564-1.13.619-.674.932-1.54.932-2.576V4.25h-1.764v5.826zM89.024 10.189l-6.586-7.356v11.109h1.799V7.538l6.585 7.337V3.836h-1.798zM100.125 9.208c0 .971-.317 1.736-.968 2.337-.315.288-.671.501-1.056.632-.396.127-.905.191-1.513.191h-.41v-6.32h.41c1.14 0 2.008.27 2.58.803.644.606.957 1.377.957 2.357m.354-3.679a4.397 4.397 0 0 0-1.673-.985c-.567-.195-1.341-.294-2.302-.294h-2.189v9.917h2.164c.97 0 1.734-.093 2.267-.274.58-.185 1.142-.516 1.67-.984 1.05-.94 1.584-2.185 1.584-3.7 0-1.51-.512-2.748-1.521-3.68M15.37 8.132c-.453-.264-.775-.6-.964-1.006-.19-.407-.285-.955-.285-1.643V3.024c0-.31-.034-.565-.101-.765a1.031 1.031 0 0 0-.322-.482c-.147-.12-.343-.199-.587-.25a6.055 6.055 0 0 0-1.167-.111H10.478a6.052 6.052 0 0 1 1.168.112c.243.05.44.129.587.249.147.12.254.281.322.482.067.2.1.455.1.765V5.51c0 .677.015 1.281.204 1.694.187.406.465.679.906.94-.44.263-.72.55-.906.955-.19.413-.203 1.004-.203 1.68v2.487c0 .31-.034.565-.101.766a1.03 1.03 0 0 1-.322.482c-.147.12-.344.199-.587.249-.046.01-.093.018-.143.027a6.052 6.052 0 0 1-1.025.084h1.464a6.055 6.055 0 0 0 1.168-.111c.244-.05.44-.129.587-.25.147-.12.254-.28.322-.481.067-.2.1-.456.1-.765v-2.46c0-.687.096-1.235.286-1.642.19-.407.51-.743.964-1.006l-.022-.014.022-.014"/><g><mask id="b" fill="#fff"><use xlink:href="#a"/></mask><path d="M14.12 9.607c-.18.42-.27.973-.27 1.661v2.519c0 .618-.135 1.035-.403 1.25-.086.07-.196.127-.325.174a2.602 2.602 0 0 1-.673.134c-.226.002-2.305.268-2.644-2.129h1.926c-.077-1.54-1.305-1.63-1.461-1.635h-.708v-.002c-1.536 0-2.226-1.149-2.537-2.187H11.6c0-.904-.723-1.676-1.416-1.636h-3C5.67 7.739 4.987 6.6 4.679 5.569h6.703c0-.904-.622-1.636-1.527-1.636H4.76c-1.536 0-2.006-1.15-2.316-2.188h9.332a5.408 5.408 0 0 1 1.112.113c.085.019.162.043.235.07.127.047.236.106.325.184.14.122.242.286.306.49.064.203.097.463.097.778V5.88c0 .7.09 1.257.27 1.67.182.415.488.755.92 1.024-.432.268-.738.612-.92 1.032m2.084-2.353a1.903 1.903 0 0 1-.377-1.18V3.501c0-.548-.052-1.035-.157-1.46a2.348 2.348 0 0 0-.56-1.067c-.269-.286-.642-.502-1.12-.647a4.851 4.851 0 0 0-.868-.17 8.786 8.786 0 0 0-.97-.05H0s.43 4.296 2.915 5.46c.215 1.268.793 3.096 2.347 3.824.232 1.371.89 3.161 2.747 3.677a.45.45 0 0 0-.005.067S8.224 17 12.202 17c.344-.003.647-.012.92-.035.304-.024.571-.065.815-.135.49-.14.875-.352 1.155-.638.28-.286.473-.638.578-1.058.105-.42.157-.91.157-1.47v-2.588c0-.443.126-.831.377-1.163.25-.333.644-.499 1.181-.499V7.753c-.537 0-.93-.167-1.181-.5" fill="#FFF" mask="url(#b)"/></g></g></svg>
